X:1
T:Conductus sine cauda
T:Conductus sine cauda
T:anonyme (ca.1223)
C:anonyme (ca.1223)
%%score [ 1 2 3 ]
L:1/8
Q:1/4=120
M:4/4
K:C
V:1 treble nm="Soprano 1" snm="S 1"
V:2 treble nm="Soprano 2" snm="S 2"
V:3 treble nm="Alto" snm="A"
V:1
 d2 A2 B2 c2 | AG A2 G4 | G2 A2 E2 F2 | G2 Gc B4 | B2 d2 c2 B2 | A2 c2 B4 | c2 A2 B2 c2 | %7
w: O- ri- en- tes|par- * ti- bus,|ad- ven- ta- vit|a- si- * nus,|pul- cher et for-|tis- si- mus|sar- ci- nis o-|
w: Hez sire as- nes|car _ chan- tez,|bel- le bou- che|re- chi- * gnez,|vous au- rez du|foin as- sez|et de l'a- voin'|
 A2 B2 G4 | c2 G2 c2 A2 | B2 B2 c4 |] %10
w: ptis- si- mus,|hez va- hez, sire|as- nes, hez.|
w: a plan- ter|hez, sire as- nes|hez, hez, hez.|
V:2
 G2 F2 E2 G2 | A2 AB c4 | d2 d2 A2 _Bc | d2 dA B4 | BA GA F2 G2 | A2 G2 E4 | C2 D2 E2 G2 | %7
w: O- ri- en- tes|par- ti- * bus,|ad- ven- ta- vit _|a- si- * nus,|pul- * cher _ et for-|tis- si- mus,|sar- ci- nis o-|
w: Hez sire as- nes|car chan- * tez,|bel- le bou- che _|re- chi- * gnez,|vous _ au- * rez du|foin as- sez|et de l'a- voin'|
 A2 B2 c4 | A2 c2 G2 F2 | E2 F2 G4 |] %10
w: ptis- si- mus,|hez, va hez, sire|as- nes, hez.|
w: à plan- ter,|hez, sire as- nes|hez, hez, hez.|
V:3
 C2 D2 E2 C2 | D2 ED C4 | G2 F2 A2 F2 | G2 F2 E4 | E2 D2 F2 E2 | D2 C2 E4 | G2 F2 E2 C2 | %7
w: O- ri- en- tes|par- ti- * bus,|ad- ven- ta- vit|a- si- nus,|pul- cher et for-|tis- si- mus,|sar- ci- nis o-|
w: Hez sire as- nes|car chan- * tez,|bel- le bou- che|re- chi- gnez,|vous au- rez du|foin as- sez|et de l'a- voin'|
 D2 D2 C4 | C2 C2 C2 D2 | E2 D2 C4 |] %10
w: ptis- si- mus,|hez, va hez, sire|as- nes, hez.|
w: à plan- ter,|hez, sire as- nes|hez, hez, hez.|

